X: 4104
T: Bloom Of Youth, The
R: reel
M: 4/4
K: Gmajor
{F}G2{B}AG EGDE|{F}G2BG AE~E2|{F}G2{B}AG .EG.AB|c{d}edc BGAF|
~G2{B}AG EGDE|~G2BG AEEF|G2{B}AG EGAB|cJedc BG~G2||
J"^p"gedJ"^p"g edBA|~B2 {c}BG AE~E2|{f}g2 {a}gd {g}edBA|(3Bcd J"^p"gd BG{A}G2|
eg~g2 eB~B2|dBAF GE{G}EA|D2{G}DE GABc|dedc BGAF||

